images/ProcessIcons/Brand Launch.svg

<svg width="24" height="24" viewBox="0 0 24 24" fill="none" xmlns="http://www.w3.org/2000/svg">
<path d="M9.525 17.5408C9.01875 19.0783 7.8 20.2033 6.00937 20.8033C5.20392 21.0692 4.36358 21.2145 3.51562 21.2346C3.31671 21.2346 3.12595 21.1555 2.98529 21.0149C2.84464 20.8742 2.76563 20.6835 2.76563 20.4846C2.7857 19.6366 2.93102 18.7963 3.19687 17.9908C3.79687 16.2002 4.92188 14.9814 6.45938 14.4752C6.55465 14.4334 6.65758 14.4118 6.76163 14.4119C6.86568 14.412 6.96857 14.4337 7.06377 14.4758C7.15896 14.5178 7.24437 14.5791 7.31456 14.6559C7.38475 14.7327 7.4382 14.8233 7.47149 14.9219C7.50479 15.0205 7.51721 15.1249 7.50796 15.2286C7.49871 15.3322 7.468 15.4328 7.41778 15.5239C7.36755 15.615 7.29892 15.6947 7.21623 15.7579C7.13355 15.821 7.03863 15.8663 6.9375 15.8908C5.09062 16.5096 4.51875 18.5064 4.34062 19.6596C5.49375 19.4814 7.49063 18.9096 8.10938 17.0627C8.18476 16.891 8.32171 16.7538 8.49324 16.6781C8.66477 16.6024 8.85844 16.5937 9.03607 16.6537C9.21371 16.7137 9.36243 16.838 9.45293 17.0022C9.54343 17.1664 9.56914 17.3586 9.525 17.5408V17.5408ZM18.8906 10.4064L18.0563 11.2502V16.9971C18.0535 17.3942 17.8954 17.7745 17.6156 18.0564L14.5781 21.0846C14.4404 21.2256 14.2755 21.3374 14.0935 21.4131C13.9114 21.4888 13.7159 21.5269 13.5187 21.5252C13.3724 21.5263 13.2269 21.5042 13.0875 21.4596C12.8265 21.3814 12.5918 21.2336 12.4084 21.0321C12.2251 20.8306 12.1001 20.583 12.0469 20.3158L11.3062 16.6127L7.3875 12.6939L3.68437 11.9533C3.4172 11.9001 3.16958 11.7751 2.96807 11.5917C2.76657 11.4084 2.6188 11.1737 2.54063 10.9127C2.46183 10.6536 2.45511 10.3779 2.52118 10.1153C2.58725 9.85269 2.72361 9.61303 2.91563 9.42206L5.94375 6.38456C6.22568 6.10482 6.60597 5.94665 7.00312 5.94394H12.75L13.5938 5.10956C16.275 2.42831 19.0219 2.50331 20.0812 2.66269C20.3989 2.70664 20.6935 2.85314 20.9203 3.0799C21.147 3.30666 21.2935 3.60127 21.3375 3.91894C21.4969 4.97831 21.5719 7.72519 18.8906 10.4064V10.4064ZM3.975 10.4814L7.50937 11.1846L11.25 7.44394H7.00312L3.975 10.4814ZM8.82187 12.0002L12 15.1783L17.8312 9.34706C18.5625 8.61581 20.2313 6.64706 19.8563 4.14394C17.3531 3.76894 15.3844 5.43769 14.6531 6.16894L8.82187 12.0002ZM16.5563 12.7502L12.8156 16.4908L13.5187 20.0252L16.5563 16.9971V12.7502Z" fill="black"/>
</svg>

<svg xmlns="http://www.w3.org/2000/svg" width="24" height="24" fill="none" xmlns:v="https://vecta.io/nano"><path d="M9.525 17.541c-.506 1.537-1.725 2.662-3.516 3.262-.805.266-1.646.411-2.494.431a.75.75 0 0 1-.75-.75c.02-.848.165-1.688.431-2.494.6-1.791 1.725-3.009 3.263-3.516a.75.75 0 0 1 .604.001.75.75 0 0 1 .408.446.75.75 0 0 1-.054.602.75.75 0 0 1-.48.367c-1.847.619-2.419 2.616-2.597 3.769 1.153-.178 3.15-.75 3.769-2.597a.75.75 0 0 1 .927-.409.75.75 0 0 1 .489.887h0zm9.366-7.134l-.834.844v5.747a1.52 1.52 0 0 1-.441 1.059l-3.038 3.028c-.138.141-.303.253-.485.329s-.378.114-.575.112a1.38 1.38 0 0 1-.431-.066 1.5 1.5 0 0 1-1.041-1.144l-.741-3.703-3.919-3.919-3.703-.741a1.5 1.5 0 0 1-1.144-1.041 1.49 1.49 0 0 1 .375-1.491l3.028-3.038a1.52 1.52 0 0 1 1.059-.441h5.747l.844-.834c2.681-2.681 5.428-2.606 6.487-2.447a1.47 1.47 0 0 1 1.256 1.256c.159 1.059.234 3.806-2.447 6.487h0zm-14.916.075l3.534.703 3.741-3.741H7.003l-3.028 3.037zM8.822 12L12 15.178l5.831-5.831c.731-.731 2.4-2.7 2.025-5.203-2.503-.375-4.472 1.294-5.203 2.025L8.822 12zm7.734.75l-3.741 3.741.703 3.534 3.038-3.028V12.75z" fill="#000"/></svg>
